svgs/thin/calculator-simple.svg

<svg xmlns="http://www.w3.org/2000/svg" viewBox="0 0 512 512"><!--! Font Awesome Pro 6.6.0 by @fontawesome - https://fontawesome.com License - https://fontawesome.com/license (Commercial License) Copyright 2024 Fonticons, Inc. --><path d="M256 0c4.4 0 8 3.6 8 8l0 240 240 0c4.4 0 8 3.6 8 8s-3.6 8-8 8l-240 0 0 240c0 4.4-3.6 8-8 8s-8-3.6-8-8l0-240L8 264c-4.4 0-8-3.6-8-8s3.6-8 8-8l240 0L248 8c0-4.4 3.6-8 8-8zm88 104l48 0 0-48 0-16c0-4.4 3.6-8 8-8s8 3.6 8 8l0 16 0 48 48 0 16 0c4.4 0 8 3.6 8 8s-3.6 8-8 8l-16 0-48 0 0 48 0 16c0 4.4-3.6 8-8 8s-8-3.6-8-8l0-16 0-48-48 0-16 0c-4.4 0-8-3.6-8-8s3.6-8 8-8l16 0zM50.7 338.7c3.1-3.1 8.2-3.1 11.3 0L112 388.7l49.9-49.9c3.1-3.1 8.2-3.1 11.3 0s3.1 8.2 0 11.3L123.3 400l49.9 49.9c3.1 3.1 3.1 8.2 0 11.3s-8.2 3.1-11.3 0L112 411.3 62.1 461.3c-3.1 3.1-8.2 3.1-11.3 0s-3.1-8.2 0-11.3L100.7 400 50.7 350.1c-3.1-3.1-3.1-8.2 0-11.3zM40 104l144 0c4.4 0 8 3.6 8 8s-3.6 8-8 8L40 120c-4.4 0-8-3.6-8-8s3.6-8 8-8zM328 360l144 0c4.4 0 8 3.6 8 8s-3.6 8-8 8l-144 0c-4.4 0-8-3.6-8-8s3.6-8 8-8zm0 64l144 0c4.4 0 8 3.6 8 8s-3.6 8-8 8l-144 0c-4.4 0-8-3.6-8-8s3.6-8 8-8z"/></svg>

<svg xmlns="http://www.w3.org/2000/svg" viewBox="0 0 512 512"><!--! Font Awesome Pro 6.4.0 by @fontawesome - https://fontawesome.com License - https://fontawesome.com/license (Commercial License) Copyright 2023 Fonticons, Inc. --><path d="M256 0c4.4 0 8 3.6 8 8V248H504c4.4 0 8 3.6 8 8s-3.6 8-8 8H264V504c0 4.4-3.6 8-8 8s-8-3.6-8-8V264H8c-4.4 0-8-3.6-8-8s3.6-8 8-8H248V8c0-4.4 3.6-8 8-8zm88 104h48V56 40c0-4.4 3.6-8 8-8s8 3.6 8 8V56v48h48 16c4.4 0 8 3.6 8 8s-3.6 8-8 8H456 408v48 16c0 4.4-3.6 8-8 8s-8-3.6-8-8V168 120H344 328c-4.4 0-8-3.6-8-8s3.6-8 8-8h16zM50.7 338.7c3.1-3.1 8.2-3.1 11.3 0L112 388.7l49.9-49.9c3.1-3.1 8.2-3.1 11.3 0s3.1 8.2 0 11.3L123.3 400l49.9 49.9c3.1 3.1 3.1 8.2 0 11.3s-8.2 3.1-11.3 0L112 411.3 62.1 461.3c-3.1 3.1-8.2 3.1-11.3 0s-3.1-8.2 0-11.3L100.7 400 50.7 350.1c-3.1-3.1-3.1-8.2 0-11.3zM40 104H184c4.4 0 8 3.6 8 8s-3.6 8-8 8H40c-4.4 0-8-3.6-8-8s3.6-8 8-8zM328 360H472c4.4 0 8 3.6 8 8s-3.6 8-8 8H328c-4.4 0-8-3.6-8-8s3.6-8 8-8zm0 64H472c4.4 0 8 3.6 8 8s-3.6 8-8 8H328c-4.4 0-8-3.6-8-8s3.6-8 8-8z"/></svg>
